sources/design/Outline/o.svg

<svg:svg xmlns:cc="http://creativecommons.org/ns#" xmlns:dc="http://purl.org/dc/elements/1.1/" xmlns:inkscape="http://www.inkscape.org/namespaces/inkscape" xmlns:rdf="http://www.w3.org/1999/02/22-rdf-syntax-ns#" xmlns:sodipodi="http://sodipodi.sourceforge.net/DTD/sodipodi-0.dtd" xmlns:svg="http://www.w3.org/2000/svg" xml:space="preserve" width="1000" height="1000" version="1.1" style="clip-rule:evenodd;fill-rule:evenodd;image-rendering:optimizeQuality;shape-rendering:geometricPrecision;text-rendering:geometricPrecision" viewBox="0 0 1000 1000" id="svg10" sodipodi:docname="o.svg" inkscape:version="1.1.1 (3bf5ae0d25, 2021-09-20)"><svg:text text-anchor="middle" x="231.84598" y="143.09555" id="top" inkscape:label="top">✛</svg:text> <svg:metadata id="metadata14"><rdf:RDF><cc:Work rdf:about=""><dc:format>image/svg+xml</dc:format><dc:type rdf:resource="http://purl.org/dc/dcmitype/StillImage" /></cc:Work></rdf:RDF></svg:metadata><sodipodi:namedview pagecolor="#ffffff" bordercolor="#666666" borderopacity="1" objecttolerance="10" gridtolerance="10" guidetolerance="10" inkscape:pageopacity="0" inkscape:pageshadow="2" inkscape:window-width="1920" inkscape:window-height="1009" id="namedview12" showgrid="false" inkscape:zoom="0.84890884" inkscape:cx="-107.78542" inkscape:cy="355.7508" inkscape:window-x="0" inkscape:window-y="0" inkscape:window-maximized="1" inkscape:current-layer="svg10" showguides="true" inkscape:guide-bbox="true" inkscape:document-rotation="0" inkscape:pagecheckerboard="0"><sodipodi:guide position="0,1000" orientation="0,1" id="guide16" inkscape:label="" inkscape:locked="true" inkscape:color="rgb(0,0,255)" /><sodipodi:guide position="1763.3122,2036.1693" orientation="1000,0" id="guide18" /><sodipodi:guide position="0,200" orientation="0,1" id="guide20" inkscape:label="base" inkscape:locked="true" inkscape:color="rgb(0,0,255)" /><inkscape:grid type="xygrid" id="grid24" originx="-473.37552" originy="-489.69235" /><sodipodi:guide position="0,0" orientation="0,1" id="guide34" inkscape:label="bottom" inkscape:locked="true" inkscape:color="rgb(0,0,255)" /><sodipodi:guide position="225.05109,1693.3186" orientation="0,1" id="guide44" inkscape:label="" inkscape:locked="false" inkscape:color="rgb(0,0,255)" /><sodipodi:guide position="0,900" orientation="0,1" id="guide46" inkscape:label="" inkscape:locked="true" inkscape:color="rgb(0,0,255)" /><sodipodi:guide position="493.91055,900" orientation="1,0" id="guide841" inkscape:label="width" />    <sodipodi:guide position="-210.85892,799.74293" orientation="0,-1" id="guide856" /></sodipodi:namedview>
 <svg:defs id="defs4"><inkscape:path-effect effect="spiro" id="path-effect857" is_visible="true" lpeversion="1" /><inkscape:path-effect effect="spiro" id="path-effect137" is_visible="true" lpeversion="1" /><inkscape:path-effect effect="spiro" id="path-effect133" is_visible="true" lpeversion="1" /><inkscape:path-effect effect="spiro" id="path-effect114" is_visible="true" lpeversion="1" /><inkscape:path-effect effect="spiro" id="path-effect853" is_visible="true" lpeversion="1" /><inkscape:path-effect effect="spiro" id="path-effect928" is_visible="true" lpeversion="1" /><inkscape:path-effect effect="spiro" id="path-effect921" is_visible="true" lpeversion="1" /><inkscape:path-effect effect="spiro" id="path-effect917" is_visible="true" lpeversion="1" /><inkscape:path-effect effect="spiro" id="path-effect849" is_visible="true" lpeversion="1" /><inkscape:path-effect effect="spiro" id="path-effect851" is_visible="true" lpeversion="1" />
  <svg:style type="text/css" id="style2">
   
    .fil0 {fill:#EF7F1A;fill-rule:nonzero}
   
  </svg:style>
 <inkscape:path-effect effect="spiro" id="path-effect1214" is_visible="true" lpeversion="1" /><inkscape:path-effect effect="spiro" id="path-effect1195" is_visible="true" lpeversion="1" /><inkscape:path-effect effect="spiro" id="path-effect992" is_visible="true" lpeversion="1" /><inkscape:path-effect effect="spiro" id="path-effect1060" is_visible="true" lpeversion="1" /><inkscape:path-effect effect="spiro" id="path-effect1047" is_visible="true" lpeversion="1" /><inkscape:path-effect effect="spiro" id="path-effect1085" is_visible="true" lpeversion="1" /><inkscape:path-effect effect="spiro" id="path-effect1286" is_visible="true" lpeversion="1" /><inkscape:path-effect effect="spiro" id="path-effect117" is_visible="true" lpeversion="1" /></svg:defs>

<svg:g id="path135"><svg:path style="color:#000000;clip-rule:nonzero;fill:#1a5fb4;fill-rule:nonzero;stroke-linecap:round;stroke-linejoin:round;-inkscape-stroke:none;paint-order:fill stroke markers;shape-rendering:auto" d="M 243.7168,162.25781 C 201.7292,162.56325 160.89847,174.8582 125.4043,195.66406 C 89.978255,216.43 60.2912,245.28563 37.394531,278.33594 C -8.350089099999998,344.36623 -25.744279,424.43559 -25.816406,501.42773 C -25.887146,576.93705 -9.334688400000001,655.45024 34.642578,720.81836 C 56.653635,753.53575 85.24675400000001,782.3198199999999 119.5293,803.45312 C 153.87519,824.62548 193.53876000000002,837.74535 234.68359,839.38672 C 277.72731,841.10384 320.15388,830.16221 357.27344,810.03516 C 394.31902,789.94821 425.60216,761.1218200000001 449.79687,727.67969 C 498.13486,660.86652 516.73657,578.5475600000001 516.60352,499.43750000000006 C 516.47352,422.14561000000003 498.49252,341.82815000000005 451.96289,276.03516 C 428.67438,243.10515 398.56349,214.49935 362.77734,194.125 C 326.92271,173.71166 285.81013,161.95161 243.7168,162.25781 M 244.15234,222.25586 C 274.67977,222.03379 305.83549,230.74762 333.09180000000003,246.26562 C 360.4166,261.82263 384.33022000000005,284.31648 402.97461000000004,310.67969 C 440.31079000000005,363.47312 456.48923,431.5858 456.60352000000006,499.53906 C 456.7204500000001,569.06741 439.9735800000001,638.89662 401.18555000000003,692.50977 C 381.81725000000006,719.28079 356.96141000000006,741.9509 328.67383000000007,757.2890600000001 C 300.4602300000001,772.58711 268.29271000000006,780.6789000000001 237.07617000000005,779.4335900000001 C 207.22123,778.2426 177.15673,768.49346 151.01562,752.37891 C 124.81117,736.2253 102.07812,713.56474 84.425781,687.32617 C 49.076247,634.78238 34.121199,568.08749 34.183594,501.48437 C 34.247194,433.59226 49.953603,365.56991000000005 86.716797,312.50391 C 105.07404,286.00606000000005 128.67562,263.29387 155.74608999999998,247.42578000000003 C 182.74844,231.59762000000003 213.69969999999998,222.47738000000004 244.15233999999998,222.25586000000004 L 244.15234,222.25586 M 243.94922,272.29297 C 214.72404,272.39364 186.19173,279.93659 160.77733999999998,293.22266 C 135.40273,306.48792000000003 113.52596999999997,325.22585000000004 96.14257799999999,347.27930000000003 C 61.36006899999999,391.40614000000005 45.89479499999999,446.86927000000003 46.19335899999999,500.93945 C 46.47940399999999,552.7422 61.206794999999985,605.71954 93.84374999999999,648.55469 C 126.76414999999999,691.76184 177.23310999999998,722.25813 233.41015999999996,725.40039 C 263.32172999999995,727.07349 292.97157999999996,720.88301 319.63280999999995,708.4765600000001 C 346.25064,696.09031 369.45232999999996,677.76485 388.03124999999994,655.7558600000001 C 425.2099999999999,611.7131200000001 442.34622999999993,554.9891000000001 442.59374999999994,499.4785200000001 C 442.83484999999996,445.40937000000014 427.0967999999999,390.0226700000001 392.06640999999996,346.1523400000001 C 374.56086999999997,324.2292800000001 352.57825999999994,305.6653600000001 327.14257999999995,292.5996100000001 C 301.66774999999996,279.5137500000001 273.12476999999996,272.19247000000007 243.94921999999997,272.2929700000001 L 243.94922,272.29297 M 244.15625,332.29297 C 263.05841,332.22787000000005 282.43566,337.08875 299.72656,345.9707 C 317.05662,354.87277 332.68555000000003,367.94476000000003 345.17969,383.59180000000003 C 370.14864,414.86168000000004 382.78337,457.12506 382.59569999999997,499.21094000000005 C 382.40317999999996,542.38728 368.66155,585.68408 342.18163999999996,617.0527300000001 C 328.93123999999995,632.7494400000002 312.43992,645.6464100000001 294.32030999999995,654.0781200000001 C 276.24411,662.4896500000001 256.11708999999996,666.5767800000001 236.76171999999994,665.4941400000001 C 200.76119999999995,663.4804600000001 164.59957999999995,642.4192800000001 141.56835999999993,612.1914100000001 C 118.25368999999992,581.5915200000002 106.41708999999993,541.1249200000001 106.19335999999993,500.60742000000016 C 105.96006999999993,458.35887000000014 118.42140999999992,415.9424500000002 143.26561999999993,384.4238300000002 C 155.69558999999992,368.65454000000017 171.26899999999992,355.4432600000002 188.5742199999999,346.39648000000017 C 205.83965999999992,337.37050000000016 225.22161999999992,332.35819000000015 244.15624999999991,332.2929700000002 L 244.15625,332.29297" id="path17029" /></svg:g></svg:svg>

<svg:svg xmlns:cc="http://creativecommons.org/ns#" xmlns:dc="http://purl.org/dc/elements/1.1/" xmlns:inkscape="http://www.inkscape.org/namespaces/inkscape" xmlns:rdf="http://www.w3.org/1999/02/22-rdf-syntax-ns#" xmlns:sodipodi="http://sodipodi.sourceforge.net/DTD/sodipodi-0.dtd" xmlns:svg="http://www.w3.org/2000/svg" xml:space="preserve" width="1000" height="1000" version="1.1" style="clip-rule:evenodd;fill-rule:evenodd;image-rendering:optimizeQuality;shape-rendering:geometricPrecision;text-rendering:geometricPrecision" viewBox="0 0 1000 1000" id="svg10" sodipodi:docname="o.svg" inkscape:version="1.1.1 (3bf5ae0d25, 2021-09-20)"><svg:text text-anchor="middle" x="231.84598" y="143.09555" id="top" inkscape:label="top">✛</svg:text> <svg:metadata id="metadata14"><rdf:RDF><cc:Work rdf:about=""><dc:format>image/svg+xml</dc:format><dc:type rdf:resource="http://purl.org/dc/dcmitype/StillImage" /></cc:Work></rdf:RDF></svg:metadata><sodipodi:namedview pagecolor="#ffffff" bordercolor="#666666" borderopacity="1" objecttolerance="10" gridtolerance="10" guidetolerance="10" inkscape:pageopacity="0" inkscape:pageshadow="2" inkscape:window-width="1920" inkscape:window-height="1009" id="namedview12" showgrid="false" inkscape:zoom="0.84890884" inkscape:cx="-107.78542" inkscape:cy="355.7508" inkscape:window-x="0" inkscape:window-y="0" inkscape:window-maximized="1" inkscape:current-layer="svg10" showguides="true" inkscape:guide-bbox="true" inkscape:document-rotation="0" inkscape:pagecheckerboard="0"><sodipodi:guide position="0,1000" orientation="0,1" id="guide16" inkscape:label="" inkscape:locked="true" inkscape:color="rgb(0,0,255)" /><sodipodi:guide position="1763.3122,2036.1693" orientation="1000,0" id="guide18" /><sodipodi:guide position="0,200" orientation="0,1" id="guide20" inkscape:label="base" inkscape:locked="true" inkscape:color="rgb(0,0,255)" /><inkscape:grid type="xygrid" id="grid24" originx="-473.37552" originy="-489.69235" /><sodipodi:guide position="0,0" orientation="0,1" id="guide34" inkscape:label="bottom" inkscape:locked="true" inkscape:color="rgb(0,0,255)" /><sodipodi:guide position="225.05109,1693.3186" orientation="0,1" id="guide44" inkscape:label="" inkscape:locked="false" inkscape:color="rgb(0,0,255)" /><sodipodi:guide position="0,900" orientation="0,1" id="guide46" inkscape:label="" inkscape:locked="true" inkscape:color="rgb(0,0,255)" /><sodipodi:guide position="493.91055,900" orientation="1,0" id="guide841" inkscape:label="width" />    <sodipodi:guide position="-210.85892,799.74293" orientation="0,-1" id="guide856" /></sodipodi:namedview>
 <svg:defs id="defs4"><inkscape:path-effect effect="spiro" id="path-effect857" is_visible="true" lpeversion="1" /><inkscape:path-effect effect="spiro" id="path-effect137" is_visible="true" lpeversion="1" /><inkscape:path-effect effect="spiro" id="path-effect133" is_visible="true" lpeversion="1" /><inkscape:path-effect effect="spiro" id="path-effect114" is_visible="true" lpeversion="1" /><inkscape:path-effect effect="spiro" id="path-effect853" is_visible="true" lpeversion="1" /><inkscape:path-effect effect="spiro" id="path-effect928" is_visible="true" lpeversion="1" /><inkscape:path-effect effect="spiro" id="path-effect921" is_visible="true" lpeversion="1" /><inkscape:path-effect effect="spiro" id="path-effect917" is_visible="true" lpeversion="1" /><inkscape:path-effect effect="spiro" id="path-effect849" is_visible="true" lpeversion="1" /><inkscape:path-effect effect="spiro" id="path-effect851" is_visible="true" lpeversion="1" />
  <svg:style type="text/css" id="style2">
   
    .fil0 {fill:#EF7F1A;fill-rule:nonzero}
   
  </svg:style>
 <inkscape:path-effect effect="spiro" id="path-effect1214" is_visible="true" lpeversion="1" /><inkscape:path-effect effect="spiro" id="path-effect1195" is_visible="true" lpeversion="1" /><inkscape:path-effect effect="spiro" id="path-effect992" is_visible="true" lpeversion="1" /><inkscape:path-effect effect="spiro" id="path-effect1060" is_visible="true" lpeversion="1" /><inkscape:path-effect effect="spiro" id="path-effect1047" is_visible="true" lpeversion="1" /><inkscape:path-effect effect="spiro" id="path-effect1085" is_visible="true" lpeversion="1" /><inkscape:path-effect effect="spiro" id="path-effect1286" is_visible="true" lpeversion="1" /><inkscape:path-effect effect="spiro" id="path-effect117" is_visible="true" lpeversion="1" /></svg:defs>

<svg:g id="path135"><svg:path style="color:#000000;clip-rule:nonzero;fill:#1a5fb4;fill-rule:nonzero;stroke-linecap:round;stroke-linejoin:round;-inkscape-stroke:none;shape-rendering:auto" d="m 243.7168,162.25781 c -41.9876,0.30544 -82.81833,12.60039 -118.3125,33.40625 -35.426045,20.76594 -65.1131,49.62157 -88.009769,82.67188 -45.7446201,66.03029 -63.13881,146.09965 -63.210937,223.09179 -0.07074,75.50932 16.4817176,154.02251 60.458984,219.39063 22.011057,32.71739 50.604176,61.50146 84.886722,82.63476 34.34589,21.17236 74.00946,34.29223 115.15429,35.9336 43.04372,1.71712 85.47029,-9.22451 122.58985,-29.35156 37.04558,-20.08695 68.32872,-48.91334 92.52343,-82.35547 48.33799,-66.81317 66.9397,-149.13213 66.80665,-228.24219 -0.13,-77.29189 -18.111,-157.60935 -64.64063,-223.40234 C 428.67438,243.10515 398.56349,214.49935 362.77734,194.125 326.92271,173.71166 285.81013,161.95161 243.7168,162.25781 Z m 0.43554,59.99805 c 30.52743,-0.22207 61.68315,8.49176 88.93946,24.00976 27.3248,15.55701 51.23842,38.05086 69.88281,64.41407 37.33618,52.79343 53.51462,120.90611 53.62891,188.85937 0.11693,69.52835 -16.62994,139.35756 -55.41797,192.97071 -19.3683,26.77102 -44.22414,49.44113 -72.51172,64.77929 -28.2136,15.29805 -60.38112,23.38984 -91.59766,22.14453 C 207.22123,778.2426 177.15673,768.49346 151.01562,752.37891 124.81117,736.2253 102.07812,713.56474 84.425781,687.32617 49.076247,634.78238 34.121199,568.08749 34.183594,501.48437 c 0.0636,-67.89211 15.770009,-135.91446 52.533203,-188.98046 18.357243,-26.49785 41.958823,-49.21004 69.029293,-65.07813 27.00235,-15.82816 57.95361,-24.9484 88.40625,-25.16992 z m -0.20312,50.03711 c -29.22518,0.10067 -57.75749,7.64362 -83.17188,20.92969 -25.37461,13.26526 -47.25137,32.00319 -64.634762,54.05664 -34.782509,44.12684 -50.247783,99.58997 -49.949219,153.66015 0.286045,51.80275 15.013436,104.78009 47.650391,147.61524 32.9204,43.20715 83.38936,73.70344 139.56641,76.8457 29.91157,1.6731 59.56142,-4.51738 86.22265,-16.92383 26.61783,-12.38625 49.81952,-30.71171 68.39844,-52.7207 37.17875,-44.04274 54.31498,-100.76676 54.5625,-156.27734 0.2411,-54.06915 -15.49695,-109.45585 -50.52734,-153.32618 -17.50554,-21.92306 -39.48815,-40.48698 -64.92383,-53.55273 -25.47483,-13.08586 -54.01781,-20.40714 -83.19336,-20.30664 z m 0.20703,60 c 18.90216,-0.0651 38.27941,4.79578 55.57031,13.67773 17.33006,8.90207 32.95899,21.97406 45.45313,37.6211 24.96895,31.26988 37.60368,73.53326 37.41601,115.61914 -0.19252,43.17634 -13.93415,86.47314 -40.41406,117.84179 -13.2504,15.69671 -29.74172,28.59368 -47.86133,37.02539 -18.0762,8.41153 -38.20322,12.49866 -57.55859,11.41602 -36.00052,-2.01368 -72.16214,-23.07486 -95.19336,-53.30273 -23.31467,-30.59989 -35.15127,-71.06649 -35.375,-111.58399 -0.23329,-42.24855 12.22805,-84.66497 37.07226,-116.18359 12.42997,-15.76929 28.00338,-28.98057 45.3086,-38.02735 17.26544,-9.02598 36.6474,-14.03829 55.58203,-14.10351 z" id="path16977" /></svg:g></svg:svg>
